app/images/icons/supporters.svg

<svg fill="none" height="19" viewBox="0 0 27 19" width="27" xmlns="http://www.w3.org/2000/svg"><path d="m4.3969 8.14889c-1.46299 0-2.60086-1.18213-2.60086-2.70201 0-1.47766 1.13787-2.70201 2.60086-2.70201 1.42235 0 2.60087 1.22435 2.60087 2.70201 0 1.51988-1.17852 2.70201-2.60087 2.70201zm18.2061 0c-1.463 0-2.6009-1.18213-2.6009-2.70201 0-1.47766 1.1379-2.70201 2.6009-2.70201 1.4223 0 2.6008 1.22435 2.6008 2.70201 0 1.51988-1.1785 2.70201-2.6008 2.70201zm1.3004 1.351c1.4223 0 2.6008 1.22431 2.6008 2.70201v1.351c0 .7599-.6095 1.351-1.3004 1.351h-2.6821c-.2845-1.9843-1.4224-3.673-3.0886-4.6018.4877-.46443 1.1379-.80221 1.8694-.80221zm-16.37733.80221c-1.66618.9288-2.80406 2.6175-3.08853 4.6018h-2.6415c-.7315 0-1.300435-.5911-1.300435-1.351v-1.351c0-1.4777 1.137875-2.70201 2.600865-2.70201h2.60086c.69086 0 1.34107.33778 1.82874.80221z" fill="#919191"/><path d="m13.5001 9.5c-2.5196 0-4.55147-2.11095-4.55147-4.72852 0-2.57535 2.03187-4.7285112 4.55147-4.7285112 2.479 0 4.5515 2.1531612 4.5515 4.7285112 0 2.61757-2.0725 4.72852-4.5515 4.72852zm3.0885 1.351c2.6009 0 4.7141 2.1954 4.7141 4.8974v1.1821c0 1.14-.8941 2.0265-1.9506 2.0265h-11.70394c-1.09724 0-1.95065-.8865-1.95065-2.0265v-1.1821c0-2.702 2.07256-4.8974 4.67349-4.8974h.325c.8535.4222 1.7881.6755 2.8041.6755.9753 0 1.91-.2533 2.7634-.6755z" fill="#767676"/></svg>

<svg width="27" height="19" viewBox="0 0 27 19" fill="none" xmlns="http://www.w3.org/2000/svg">
<path d="M4.3969 8.14889C2.93391 8.14889 1.79604 6.96676 1.79604 5.44688C1.79604 3.96922 2.93391 2.74487 4.3969 2.74487C5.81925 2.74487 6.99777 3.96922 6.99777 5.44688C6.99777 6.96676 5.81925 8.14889 4.3969 8.14889ZM22.603 8.14889C21.14 8.14889 20.0021 6.96676 20.0021 5.44688C20.0021 3.96922 21.14 2.74487 22.603 2.74487C24.0253 2.74487 25.2038 3.96922 25.2038 5.44688C25.2038 6.96676 24.0253 8.14889 22.603 8.14889ZM23.9034 9.49989C25.3257 9.49989 26.5042 10.7242 26.5042 12.2019V13.5529C26.5042 14.3128 25.8947 14.9039 25.2038 14.9039H22.5217C22.2372 12.9196 21.0993 11.2309 19.4331 10.3021C19.9208 9.83767 20.571 9.49989 21.3025 9.49989H23.9034ZM7.52607 10.3021C5.85989 11.2309 4.72201 12.9196 4.43754 14.9039H1.79604C1.06454 14.9039 0.495605 14.3128 0.495605 13.5529V12.2019C0.495605 10.7242 1.63348 9.49989 3.09647 9.49989H5.69733C6.38819 9.49989 7.0384 9.83767 7.52607 10.3021Z" fill="#919191"/>
<path d="M13.5001 9.5C10.9805 9.5 8.94863 7.38905 8.94863 4.77148C8.94863 2.19613 10.9805 0.0429688 13.5001 0.0429688C15.9791 0.0429688 18.0516 2.19613 18.0516 4.77148C18.0516 7.38905 15.9791 9.5 13.5001 9.5ZM16.5886 10.851C19.1895 10.851 21.3027 13.0464 21.3027 15.7484V16.9305C21.3027 18.0705 20.4086 18.957 19.3521 18.957H7.64816C6.55092 18.957 5.69751 18.0705 5.69751 16.9305V15.7484C5.69751 13.0464 7.77007 10.851 10.371 10.851H10.696C11.5495 11.2732 12.4841 11.5265 13.5001 11.5265C14.4754 11.5265 15.4101 11.2732 16.2635 10.851H16.5886Z" fill="#767676"/>
</svg>
